X: 30483
T: Old Woman Of The Milldust
R: jig
M: 6/8
K: Amixolydian
|:{g}A{d}B{e}A {ag}a2e|{gf}g2f {g}ed{e}B|{g}A{d}A{e}A {ag}a2 e|{gf}g2 e{g}dB {d}G|
%
{g}A{d}A{e}A {ag}a2 e|{gf}g2 d {g}efg|ag{a}f {gf}g2 e|{Gdc}d2 e {g}dB{d}G:|%
|:{g}Bcd {gef}e2 A|{ag}a2 A {gef}e2 A|{g}Bcd {gef}e2 A|{gf}g2 e {g}dB{d}G|
%
{g}Bcd {gef}e2 A|{gf}g2 d {g}efg|ag{a}f {gf}g2 e|{Gdc}d2 e {g}dB{d}G:|
|:{gcd}c2 {e}A {g}A{d}A{e}A|{g}c {GdG}e2 {ag}a2 e|{gcd}c2 {e}A {g}A{d}A{e}A|{gBd}B2 e {g}dB{d}G|
%
{gcd}c2 {e}A {g}A{d}A{e}A|{g}c {GdG}e2 {gf}g3|ag{a}f {gf}g2 e|{Gdc}d2 e {g}dB{d}G:|
|:{ag}a2 A{gef}e2 A|{ag}a2 A {g}ec{d}A|{ag}a2 A {gef}e2 A|{gf}g2 e {g}dB{d}G|
%
{ag}a2 A {gef}e2 A|{ag}a2 A {g}efg|ag{a}f {gf}g2e|{Gdc}d2 e {g}dB{d}G:|
|:{g}A>{d}A{e}A {g}A{d}A{e}A|{gcd}c2{e}A[1 {g}ec{d}A [2 {g}edB|{g}A{d}A{e}A {g}A{d}A{e}A|{gf}g2 e {g}dB{d}G|
%
{g}A>{d}A{e}A {g}A{d}A{e}A|{g}c {GdG}e2 {g}efg|ag{a}f {gf}g2 e|{Gdc}d2 e{g}dB{d}G:|
%
|:{ag}a2 A {g} A{d}A{e}A|{ag}a2 A {g}ec{d}A|{ag}a2 A {g}A{d}A{e}A|{gf}g2 e {g}dB{d}G|
%
{ag}a2 A {g} A{d}A{e}A|{g}A{d}A{e}A {gf}g3|ag{a}f {gf}g2 e|{Gdc}d2 e {g}dB{d}G:|

